X:1
T:Can a Boy Forget His Mother?
T:Can a Boy Forget His Mother?
T:Joseph Hulse Weber
T:Joseph Hulse Weber, 1889
T:Public Domain Courtesy of the Cyber Hymnal™
T:Public Domain Courtesy of the Cyber Hymnal™
C:Joseph Hulse Weber
Z:Public Domain
Z:Courtesy of the Cyber Hymnal™
%%score 1 2
L:1/8
Q:1/4=80
M:3/4
K:A
V:1 treble 
V:2 bass 
V:1
 [CE]/[CE]<[CE][CE]/ | [CE]3 [CE] [DF]>[DF] | [DF]3 [DA] [CE]>[CE] | [EA]3 [EA] [EB]>[EA] | %4
w: 1.~Can a boy for-|get his mo- ther’s|prayer, When he has|wan- dered, God knows|
w: 2.~Can a boy for-|get his mo- ther’s|face, Whose heart was|kind and filled with|
w: 3.~Can a boy for-|get his mo- ther’s|door, From which he|wan- dered years be-|
w: 4.~Can a boy for-|get that she is|dead, Though ma- ny|years have passed and|
 [EB]3 [DE] [DE]>[CA] | [EB]3 [CA] [DB]>[DB] | [DF]3 [DA] [CE]>[EA] | [Ec]3 [EA] [EB]>[EB] | %8
w: where? It’s down the|path of death and|shame, But mo- ther’s|prayers are heard the|
w: grace? Her lov- ing|voice it e- choes|sweet: She waits, she|longs, her boy to|
w: fore? With tears and|sighs she said, “Good-|bye! Meet me, my|boy, be- yond the|
w: fled? Those tears, that|prayer, that sweet “Good-|bye”; She waits to|wel- come thee on|
 [EA]3 ||"^Refrain" [=GA][Fd]>[Fd] | [Fd]3 [DF] [CE]>[EA] | [Ec]3 [EA] [EB]>[EB] | %12
w: same!||||
w: meet!|Come back, my|boy, come back, I|say, And walk now|
w: sky!”||||
w: high!||||
 [EB]3 [DG] [CA]>[EB] | [Ec]3 [Ec] [Ec]>[Ec] | [Ee]3 [EA] [DB]>[DB] | [DF]3 [DA] [CE]>[CA] | %16
w: ||||
w: in thy mo- ther’s|way; Come back, my|boy, come back, I|say, And walk now|
w: ||||
w: ||||
 [Ec]3 [EA] [Ec]<[DB] | [CA]3 |] %18
w: ||
w: in thy mo- ther’s|way.|
w: ||
w: ||
V:2
 [A,,A,]/[A,,A,]<[A,,A,][A,,A,]/ | [A,,A,]3 [A,,A,] [D,A,]>[D,A,] | %2
 [D,A,]3 [D,F,] [A,,A,]>[A,,A,] | [A,,C]3 [A,,C] [E,D]>[E,C] | [E,D]3 [E,B,] [E,G,]>[A,,A,] | %5
 [A,,A,]3 [A,,A,] [D,F,]>[D,F,] | [D,A,]3 [D,F,] [A,,A,]>[A,,C] | [A,,A,]3 [A,,C] [E,D]>[E,D] | %8
 [A,,C]3 || [A,,C][D,D]>[D,D] | [D,D]3 [D,A,] [A,,A,]>[A,,C] | [A,,A,]3 [A,,C] [E,D]>[E,D] | %12
 [E,D]3 [E,B,] [E,A,]>[E,G,] | [A,,A,]3 [A,,A,] [A,,A,]>[A,,A,] | [C,A,]3 [C,A,] [D,F,]>[D,F,] | %15
 [D,A,]3 [D,F,] [A,,A,]>[A,,A,] | [A,,A,]3 [A,,B,] [E,A,]<[E,G,] | [A,,A,]3 |] %18

